!!!!SEGMENT: pl-wtm--r-1329_stefani-jozef--mazur-do-baletu-sen-dansomana.krn
!!!cenid: 18xx:2400
!!!COM: Stefani, Józef
!!!COM-rismid: pe30024097
!!!CDT: 1800/04/16-1876/03/19
!!!CNT: Polish
!!!OTL: Mazur do baletu Sen Dansomana
!!!PDT:
!!!AGN: Secular
!!!SMS-siglum: PL-Wtm
!!!SMS-shelfmark: R 1329
!!!SMS-shelfwork: W
!!!SMS-variant:
!!!SMS-altvar:
!!!NIFC-rismid: 1001119005
!!!URL-scan: http://repozytorium.nifc.pl/skany/pl-wtm-nut--r1329
!!!ONB-nifc:
**kern	**kern	**dynam
*part2	*part1	*part1
*staff2	*staff1	*
*	*I"Allegro Moderato	*
*>[A,B,B,C]	*>[A,B,B,C]	*>[A,B,B,C]
*>A	*>A	*>A
*clefF4	*clefG2	*
*k[f#]	*k[f#]	*
*G:	*G:	*
*M4/4	*M4/4	*
*met(c)	*met(c)	*
=1	=1	=1
*^	*	*
*2\right	*2\right	*	*
!	!LO:N:vis=2	!LO:TX:a:t=Wstęp do Mazura.	!LO:DY:rj:t=for.
2D#X\	8D#\L	(16b'\LL	f
.	.	16b'\	.
.	8B 8A 8F#\	16b'\	.
.	.	16b'\JJ	.
.	8B 8A 8F#\	&(16cc\LL	.
.	.	16b\	.
.	8BJ 8A 8F#\	16a#X\	.
.	.	16b\JJ)	.
8E/L	4E\	4ee\	.
8B 8G/	.	.	.
8B 8G/	4r	4r&)	.
8BJ 8G/	.	.	.
=2	=2	=2	=2
*	*	*tremolo	*
!	!LO:N:vis=2	!LO:TX:b:t=....	!
2C#X/	8C#\L	16a'/LL	.
.	.	16a'/	.
.	8A 8G 8E\	16a'/	.
.	.	16a'/JJ	.
*	*	*Xtremolo	*
.	8A 8G 8E\	(<16b/LL	.
.	.	16a/	.
.	8AJ 8G 8E\	16g#X/	.
.	.	16a/JJ	.
8D/L	4D\	4ff#\)	.
8A 8F#/	.	.	.
8A 8F#/	4r	4r	.
8AJ 8F#/	.	.	.
!!LO:LB:g=original
=3	=3	=3	=3
*	*	*tremolo	*
!	!	!LO:TX:a:t=....	!
8Cn/L	4Cn\	16dd'\LL	.
.	.	16dd'\	.
8A 8F#/	.	16dd'\	.
.	.	16dd'\JJ	.
*	*	*Xtremolo	*
8A 8F#/	4r	(16ee\LL	.
.	.	16dd\	.
8AJ 8F#/	.	16cc#X\	.
.	.	16dd\JJ)	.
*	*	*tremolo	*
!	!	!LO:TX:a:t=....	!
8BB/L	4BB\	16dd'\LL	.
.	.	16dd'\	.
8G 8D/	.	16dd'\	.
.	.	16dd'\JJ	.
*	*	*Xtremolo	*
8G 8D/	4r	(16ee\LL	.
.	.	16dd\	.
8GJ 8D/	.	16cc#\	.
.	.	16dd\JJ)	.
=4	=4	=4	=4
*	*	*tremolo	*
!	!	!LO:TX:a:t=....	!
8C/L	4C\	16ee'\LL	.
.	.	16ee'\	.
8A 8E/	.	16ee'\	.
.	.	16ee'\JJ	.
*	*	*Xtremolo	*
8A 8E/	4r	(16ff#\LL	.
.	.	16ee\	.
8AJ 8E/	.	16dd#X\	.
.	.	16ee\JJ)	.
8C/L	4C\	(16ff#\LL	.
.	.	16ee\	.
8AJ 8E/	.	16dd#\	.
.	.	16ee\JJ)	.
8C#X/L	4C#\	(16dd#\LL	.
.	.	16ee\	.
8A#XJ 8G 8E/	.	16ff#\	.
.	.	16gg\JJ	.
*v	*v	*	*
=	=	=
8D\L	16gg\LL)	.
.	16ff#\	.
8BJ 8G\	16ee\	.
.	16dd\JJ	.
*rep	*	*
8D\L	16bb\LL	.
.	16aa\	.
8BJ 8G\	16gg\	.
.	16ff#\JJ	.
*Xrep	*	*
!!LO:LB:g=original
=5	=5	=5
*^	*	*
8D\L	4ryy	16gg\LL	.
.	.	16ff#\	.
8BJ 8G\	.	16ee\	.
.	.	16dd\JJ	.
4D/	8D\L	16cc#X\LL	.
.	.	16dd\	.
.	8AJ 8F#\	16ccn\	.
.	.	16a\JJ	.
*v	*v	*	*
=6	=6	=6
!LO:TX:b:t=P:problem:nie do końca czytelny napis	!	!
!LO:TX:b:t=Warszawa\nNakład R. Fredleina\nm&colon;	!	!
1r;	1r;	.
!!LO:PB:g=original
=7||	=7||	=7||
*M3/8	*M3/8	*
!	!LO:TX:a:t=Mazur (&colon; Pas de deux &colon;)	!LO:DY:rj
8D 8DD/	16.eeLL 16.cc\	mf
.	32eeJJk 32cc\	.
8r	8ddL 8b\	.
8c 8F# 8D\	8ccJ 8a\	.
=8	=8	=8
8B 8G\	16.bLL 16.g/	.
.	32f#/K	.
8r	16.g/	.
.	32e/JK	.
8B 8G\	8d/J	.
=9	=9	=9
8A\	16.f#LL 16.d/	.
.	32aJJk 32f#/	.
8r	8gL 8e/	.
8G 8AA\	8eJ 8c#X/	.
=10	=10	=10
8F# 8D\	16.d/LL	.
.	32f#/K	.
8r	16.a/	.
.	32cc#X/JK	.
8d 8A 8F# 8D\	8dd/J	sf
!!LO:LB:g=original
=11	=11	=11
8D 8DD/	16.eeLL 16.ccn\	.
.	32eeJJk 32cc\	.
8r	8ddL 8b\	.
8c 8F# 8D\	8ccJ 8a\	.
=12	=12	=12
8B 8G\	16.bLL 16.g/	.
.	32f#/K	.
8r	16g/	.
.	16e/J	.
8B 8G\	8d/J	.
=13	=13	=13
*	*^	*
8A\	16.f#LL 16.d/	8ryy	.
.	32aJJk 32f#/	.	.
8r	8gL 8e/	8ryy	.
8G 8E 8AA\	16.e/L	8c#X\	.
.	32f#/JJk	.	.
*	*v	*v	*
=14	=14	=14
8F# 8D\	8d/	.
4D 4DD/	4dd 4f# 4d/	.
=15||	=15||	=15||
!	!LO:TUP:a	!LO:DY:rj
8D\	(24dd\LL	p
.	24ff#\	.
.	24aa\JJ	.
*clefG2	*	*
8ccL 8f# 8d/	8ccc\L)	.
8ccJ 8f# 8d/	8eeeJ 8ccc'\	.
!!LO:LB:g=original
=16	=16	=16
*clefF4	*	*
8D\	16.eeeLL 16.ccc\	.
.	32dddJJk 32bb\	.
*clefG2	*	*
8bL 8g 8d/	8gggL 8bb\	.
8bJ 8g 8d/	8bbJ 8gg\	.
=17	=17	=17
*clefF4	*	*
8D\	(16bb\LL	.
.	16aa\	.
*clefG2	*	*
8ccL 8a 8d/	16ccc\)	.
.	16ee'\	.
8ccJ 8a 8d/	16ff#'\	.
.	16dd'\JJ	.
=18	=18	=18
*clefF4	*	*
8D\	16.gg\LL	.
.	32bb\K	.
*clefG2	*	*
8bL 8g 8d/	16ddd\	.
.	16eee\J	.
8bJ 8g 8d/	8ddd\J	.
=19	=19	=19
*clefF4	*Xtuplet	*
8D\	(24dd\LL	.
.	24ff#\	.
.	24aa\JJ	.
*clefG2	*	*
8ccL 8f# 8d/	8ccc\L)	.
8ccJ 8f# 8d/	8eee'\J	.
!!LO:LB:g=original
=20	=20	=20
*clefF4	*	*
8G\	16.eeeLL 16.ccc\	.
.	32dddJJk 32bb\	.
*clefG2	*	*
8b 8g 8d/	8gggL 8bb\	.
8a#X 8g 8e/	8ccc#XJ 8aa#X 8gg\	.
=21	=21	=21
8bL 8g 8d/	(24ddd\LL	.
.	24ccc#X\	<
.	24ddd\JJ	.
8cc#X 8a 8d/	24eee\LL	.
.	24ddd#X\	.
.	24eee\JJ	.
8ccnJ 8a 8d/	24fff#\LL	.
.	24eee\	.
.	24fff#\JJ	[[
=22	=22	=22
8b 8g/	8ggg\)	.
4b 4g/	4gg\	.
*clefF4	*	*
=23	=23	=23
!	!	!LO:DY:rj
8D 8DD/	(24d/LL	f
.	24f#/	.
.	24a/JJ	.
8cL 8F# 8D\	8cc\L)	.
8cJ 8F# 8D\	8eeJ 8cc'\	.
!!LO:LB:g=original
=24	=24	=24
8D 8DD/	16.eeLL 16.cc\	.
.	32ddJJk 32b\	.
8BL 8G 8D\	8ggL 8b\	.
8BJ 8G 8D\	8bJ 8g\	.
=25	=25	=25
8D 8DD/	(16b/LL	.
.	16a/	.
8cL 8A 8D\	16cc/)	.
.	16e'/	.
8cJ 8A 8D\	16f#'/	.
.	16d'/JJ	.
=26	=26	=26
8GG/	16.g/LL	.
.	32b/K	.
8BL 8G 8D\	16dd/	.
.	16ee/J	.
8BJ 8G 8D\	8dd/J	.
=27	=27	=27
8D 8DD/	(24d/LL	.
.	24f#/	.
.	24a/JJ	.
8cL 8F# 8D\	8ccL 8a\)	.
8cJ 8F# 8D\	8ee'\J	.
=28	=28	=28
8G 8GG/	16.eeLL 16.cc\	.
.	32ddJJk 32b\	.
8BL 8G\	8ggL 8b\	.
8A#XJ 8G 8E\	8cc#X\J	sf
!!LO:LB:g=original
=29	=29	=29
8BL 8G 8D\	(24dd\LL	.
.	24cc#X\	.
.	24dd\JJ	.
8c#X 8A 8D\	24ee\LL	.
.	24dd#X\	.
.	24ee\JJ	.
8cnJ 8A 8D\	24ff#\LL	.
.	24ee\	.
.	24ff#\JJ	.
=30	=30	=30
8B 8G\	8gg\)	.
8B 8G\	8g/	.
8r;	8r;	.
=31||	=31||	=31||
*k[fnb-e-a-]	*k[fnb-e-a-]	*
*	*^	*
!LO:TX:t=P:problem:kolejność znaków Fn BB- E- AA-	!LO:TX:t=P:problem:kolejność znaków ffn b- ee- a-	!	!LO:DY:rj
16.F\LL	8a- 8f 8c/	8ryy	p
32E-\JJk	.	.	.
8D\L	8b-/L	4f 4B-\	.
8D\J	8a-/J	.	.
*	*v	*v	*
=32	=32	=32
.	8qa- 8qf/	.
16.E-\LL	16.gLL 16.e-/	.
32BB-\JJk	32fJJk 32d/	.
4E-\	4g 4e-/	.
!!LO:PB:g=original
=33	=33	=33
*tremolo	*	*
*clefG2	*	*
!	!	!LO:DY:rj
8g-XL 8e- 8B-/	(24an\LL	sf
.	24cc\	.
.	24ee-\JJ	.
!	!LO:TX:t=P:problem:mixed beam	!
8g- 8e- 8B-/	8gg-X\L)	.
8g-J 8e- 8B-/	8a'/J	.
*Xtremolo	*	*
=34	=34	=34
.	(8qcc/	.
8f 8d 8B-/	16.b-/LL)	.
.	32an'/JJk	.
4f 4d 4B-/	4b-'/	.
=35	=35	=35
*tremolo	*	*
8g-XL 8e- 8B-/	(24an\LL	.
.	24cc\	.
.	24ee-\JJ	.
!	!LO:TX:t=P:problem:mixed beam	!
8g- 8e- 8B-/	8gg-X\L)	.
8g-J 8e- 8B-/	8a'/J	.
*Xtremolo	*	*
=36	=36	=36
.	8qcc/	.
8fL 8d 8B-/	16.b-/LL	.
.	32an/JJk	.
8g-X 8e-/	16.b-/LL	.
.	32a/JJk	.
16a-Jk 16f/	16b-/LL	.
16r	16a-X/JJ	.
=37	=37	=37
*clefF4	*	*
8E- 8EE-/	8gL 8e-/	.
8B-L 8G 8E-\	8b- 8g/	.
8B-J 8G 8E-\	8gJ 8e-/	.
!!LO:LB:g=original
=38	=38	=38
.	(8qg 8qe-/	.
8B- 8F 8BB-\	16.fLL 16.d/)	.
.	32enJJk 32c#X'/	.
8B-L 8F 8BB-\	8fL 8d'/	.
8B-J 8F 8BB-\	8b-J 8d'/	.
=39	=39	=39
8GL 8C\	(24e-LL 24c/	.
.	24d 24Bn/	.
.	24e-JJ 24c/)	.
8G 8C\	8gL 8e-/	.
8GJ 8C\	8e-J 8c'/	.
=40	=40	=40
.	(8qe- 8qc/	.
8G 8D 8GG\	16.dLL 16.Bn/)	.
.	32cJJk 32A-/	.
4G 4D 4GG\	4d 4B/	.
=41	=41	=41
8AA-/	(<24c/LL	.
.	24e-/	.
.	24g/JJ	.
8cL 8A- 8E-\	8cc\L)	.
8cJ 8A- 8E-\	8ee-\J	.
=42	=42	=42
8BB-/	16.ee-\LL	.
.	32g\JJk	.
8GL 8E- 8BB-\	(8cc\L	.
8GJ 8E- 8BB-\	8b-\J)	.
!!LO:LB:g=original
=43	=43	=43
*tremolo	*	*
8A-L 8F 8BB-\	(16an/LL	.
.	16b-/	.
8A- 8F 8BB-\	16cc/	.
.	16b-/)	.
8A-J 8F 8BB-\	(16a-X/	.
.	16f/JJ)	.
*Xtremolo	*	*
=44	=44	=44
8G 8E-\	8e-/	.
4E- 4EE-/	4ee- 4g\	.
=45||	=45||	=45||
*tremolo	*	*
!	!	!LO:DY:rj
8c#XL 8An 8G 8E-\	16.g/LL	f
.	32g/JJk	p
.	(8qb-/	.
8c# 8A 8G 8E-\	8an/L)	.
8c#J 8A 8G 8E-\	8g'/J	.
*Xtremolo	*	*
=46	=46	=46
8d 8An 8F#X 8D\	16.f#X|/LL	.
.	32an|/JJk	.
8enL 8B- 8G 8D\	(8cc#X\L	.
8dJ 8A 8F# 8D\	8dd\J)	.
=47	=47	=47
*tremolo	*	*
8GL 8C#X 8AAn\	16.een\LL	.
.	32ee\JJk	.
.	(8qgg/	.
8G 8C# 8AA\	8.ff#X\L)	.
8GJ 8C# 8AA\	.	.
.	16ee'\Jk	.
!!LO:LB:g=original
=48	=48	=48
8F#XL 8D\	16.dd/LL	.
.	32f#X/JJk	.
8F# 8D\	(8bn/L	.
8F#J 8D\	8an/J)	.
=49	=49	=49
!	!	!LO:DY:rj
8c#XL 8An 8G 8E-X\	16.g/LL	f
.	32g/JJk	p
.	8qb-X/	.
8c# 8A 8G 8E-\	8an/L	.
8c#J 8A 8G 8E-\	8g/J	.
*Xtremolo	*	*
=50	=50	=50
8d 8An 8F#X 8D\	24f#X'/LL	.
.	(24f#/	.
.	24an/JJ)	.
8enL 8B- 8G 8D\	(8cc#X^<\L	.
8dJ 8A 8F# 8D\	8dd\J)	.
=51	=51	=51
*tremolo	*	*
!	!	!LO:DY:rj
8GL 8C#X 8AAn\	16.een\LL	f
.	32ee\JJk	.
.	(8qgg/	.
8G 8C# 8AA\	8.ff#X\L)	.
8GJ 8C# 8AA\	.	.
.	16ee\Jk	.
*Xtremolo	*	*
!!LO:LB:g=original
=52	=52	=52
*	*^	*
8F#X 8D\	8dd\L	8ryy	.
8D 8DD/	8dddJ 8ff#X 8dd\	8ryy	.
8r	(16dd/LL	8bn\	.
.	16ee-/JJ)	.	.
*	*v	*v	*
=53||	=53||	=53||
*k[bnenanf#]	*k[bnenanf#]	*
!	!	!LO:DY:rj
8D 8DD/	16.eeLL 16.cc\	mf
.	32eeJJk 32cc\	.
8r	8ddL 8b\	.
8c 8F# 8D\	8ccJ 8a\	.
=54	=54	=54
8B 8G\	16.bLL 16.g/	.
.	32f#/K	.
8r	16g/	.
.	16e/J	.
8B 8G\	8d/J	.
=55	=55	=55
8A\	16.f#LL 16.d/	.
.	32aJJk 32f#/	.
8r	8gL 8e/	.
8G 8AA\	8eJ 8c#X/	.
!!LO:LB:g=original
=56	=56	=56
8F# 8D\	16.d/LL	.
.	32f#/K	.
8r	16.a/	.
.	32cc#X/JK	.
8d 8A 8F# 8D\	8dd/J	sf
=57	=57	=57
8D 8DD/	16.eeLL 16.ccn\	.
.	32eeJJk 32cc\	.
8r	8ddL 8b\	.
8c 8F# 8D\	8ccJ 8a\	.
=58	=58	=58
8B 8G\	16.bLL 16.g/	.
.	32f#/K	.
8r	16g/	.
.	16e/J	.
8B 8G\	8d/J	.
=59	=59	=59
*	*^	*
8A\	16.f#LL 16.d/	8ryy	.
.	32aJJk 32f#/	.	.
8r	8gL 8e/	8ryy	.
8G 8E 8AA\	16.e/L	8c#X\	.
.	32f#/JJk	.	.
*	*v	*v	*
=60	=60	=60
8F# 8D\	8d/	.
!	!LO:TX:b:t=V&colon; S&colon;	!
4D 4DD/	4dd 4f# 4d/	.
!!LO:PB:g=original
=61	=61	=61
!	!	!LO:DY:rj
8D\	(24dd\LL	p
.	24ff#\	.
.	24aa\JJ	.
*clefG2	*	*
8ccL 8a 8f# 8d/	8ccc\L)	.
8ccJ 8a 8f# 8d/	8eeeJ 8ccc'\	.
=62	=62	=62
*clefF4	*	*
8D\	16.eeeLL 16.ccc\	.
.	32dddJJk 32bb\	.
*clefG2	*	*
8bL 8g 8d/	8gggL 8bb\	.
8bJ 8g 8d/	8bbJ 8gg\	.
=63	=63	=63
*clefF4	*	*
8ryy	(16bb\LL	.
.	16aa\	.
*clefG2	*	*
8ccL 8a 8d/	16ccc\)	.
.	16ee'\	.
8ccJ 8a 8d/	16ff#'\	.
.	16dd'\JJ	.
=64	=64	=64
*clefF4	*	*
8D\	16.gg\LL	.
.	32bb\K	.
*clefG2	*	*
8bL 8g 8d/	16ddd\	.
.	16eee\J	.
8bJ 8g 8d/	8ddd\J	.
*clefF4	*	*
=65	=65	=65
!	!	!LO:DY:rj
8D 8DD/	(<24d/LL	f
.	24f#/	.
.	24a/JJ	.
8cL 8A 8F# 8D\	8cc\L)	.
8cJ 8A 8F# 8D\	8eeJ 8cc\	.
!!LO:LB:g=original
=66	=66	=66
8GG/	16.eeLL 16.cc\	.
.	32ddJJk 32b\	.
8BL 8G\	8ggL 8b\	.
8A#XJ 8G 8E\	8cc#X^<\J	.
=67	=67	=67
8BL 8G 8D\	(24dd\LL	.
.	24cc#X\	<
.	24dd\JJ	.
8c#X 8A 8D\	24ee\LL	.
.	24dd#X\	.
.	24ee\JJ	.
8cnJ 8A 8D\	24ff#\LL	.
.	24ee\	.
.	24ff#\JJ	[[
=68	=68	=68
8B 8G\	8gg\)	.
4B 4G\	4g/	.
=69||	=69||	=69||
!	!	!LO:DY:rj
8BL 8G 8E\	(8gg\L	p
8B 8G 8E\	8.ee\)	.
8cJ 8A 8E\	.	.
.	(16ff#\Jk	.
=70	=70	=70
8B 8A 8E\	16.b\LL)	.
.	32dd#X\JJk|	.
8d#XL 8A 8E\	(8ff#\L	.
8eJ 8G 8E\	8ee\J)	.
!!LO:LB:g=original
=71	=71	=71
8BL 8G 8E\	16.gg\LL|	.
.	(32gg\JK	.
8B 8G 8E\	8.ee\)	.
8cJ 8A 8E\	.	.
.	(16ff#\Jk|	.
=72	=72	=72
8B 8A 8E\	16.b\LL)	.
.	32dd#X\JJk|	.
4B 4G 4E\	(8ee\L	.
.	8eee\J)	.
=73	=73	=73
8BL 8G 8E\	(8gg\L	p
8B 8G 8E\	8.ee\)	.
8cJ 8A 8E\	.	.
.	(16ff#\Jk|	.
=74	=74	=74
8BL 8A 8E\	16.b\LL)	.
.	32dd#X\JJk|	.
8B 8A 8E\	(8ff#\L	.
8BJ 8G 8E\	8ee\J)	.
=75	=75	=75
8BL 8G 8E\	16.gg\LL|	.
.	(32gg\JJk|	.
8B 8G 8E\	8.ee\L)	.
8cJ 8A 8E\	.	.
.	(16ff#\Jk|	.
!!LO:LB:g=original
=76	=76	=76
8B 8A 8E\	16.b\LL)	.
.	32dd#X\JJk|	.
8BL 8A 8E\	(8dd#\L	.
8BJ 8G 8E\	8ee\J)	.
=77!|:	=77!|:	=77!|:
*>B	*>B	*>B
*tremolo	*	*
.	(8qddn/	f
8cL 8A 8F# 8D\	8.ddd\L)	.
8c 8A 8F# 8D\	.	.
.	(16ccc#X\L	.
8cJ 8A 8F# 8D\	16cccn\	.
.	16aa\JJ	.
*Xtremolo	*	*
=78	=78	=78
8G 8GG/	16.gg\LL)	.
.	32aa\K	.
8BL 8G 8D\	16.bb\	.
.	32ff#\K	.
8BJ 8G 8D\	16.gg\	.
.	32ee\JJk	.
=79	=79	=79
*tremolo	*	*
8cL 8A 8F# 8D\	(8.dd\L	.
8c 8A 8F# 8D\	.	.
.	16cc#X\L	.
8cJ 8A 8F# 8D\	16ccn\	.
.	16a\JJ	.
=80	=80	=80
8BL 8G\	16.g/LL)	.
.	32a/JJk	.
8B 8G\	16.b\LL	.
.	32ee\K	.
8BJ 8G\	16dd\	.
.	16b\JJ	.
*Xtremolo	*	*
!!LO:LB:g=original
=81	=81	=81
.	(8qb/	.
8D#X 8DD#X/	8.bb\L)	.
8BL 8F# 8D#\	.	.
.	(16aa\L	.
8BJ 8A 8F# 8D#\	16gg\	.
.	16ff#\JJ)	.
=82	=82	=82
8BL 8G 8E\	16.ee\LL	.
.	32ff#\JJk	.
8B 8G 8E\	8gg\L	.
8BJ 8F# 8D#X 8BB\	8ff#\J	.
=83	=83	=83
*rep	*	*
8BL 8G 8E\	16.ee\LL	.
.	32ff#\JJk	.
8B 8G 8E\	8gg\L	.
8BJ 8F# 8D#X 8BB\	8ff#\J	.
*Xrep	*	*
=84	=84	=84
8BL 8G 8E\	16.ee\LL|	.
.	32ff#\JJk|	.
8B 8G 8E\	(16gg\LL	.
.	16ff#\JJ)	.
8A#XJ 8E 8C\	(16gg\LL	.
.	16a#X\JJ)	.
=85	=85	=85
8B 8F# 8D#X 8BB\	8b\	.
4B 4BB\	4bb 4dd#X 4b^<\	.
!!LO:LB:g=original
=86	=86	=86
8A 8AA\	8r	.
4A 4AA\	4ccc 4ff# 4dd#X 4b^<\	.
=87	=87	=87
8B 8BB\	8r	.
4B 4BB\	4bb 4ff# 4dd#X^<\	.
=88	=88	=88
8A 8AA\	8r	.
4A 4AA\	4ccc 4ff# 4dd#X^<\	.
=89	=89	=89
8B 8BB\	16.bbLL 16.ff# 16.dd#X\	.
.	32aa#X\JJk	.
*clefG2	*	*
4f# 4d#X 4B/	8bb\L	.
.	8bb\J	.
=90	=90	=90
.	8qccc/	.
8g 8e 8B/	16.bb\LL	.
.	32aa#X\JJk	.
4g 4e 4B/	8bb\L	.
.	8bb\J	.
=91	=91	=91
.	(8qccc/	.
4a 4f# 4B/	16.bb\LL)	.
.	32aa#X\JJk	.
.	8bb\L	.
8g 8e 8B/	8bb\J	.
!!LO:PB:g=original
=92	=92	=92
.	(8qccc/	.
8f# 8d#X 8B/	16.bb\LL)	.
.	32aa#X'\JJk	.
8r	16.bb'\LL	.
.	32aa#'\JJk	.
8r	(16bb\LL	.
.	16aan\JJ)	.
*clefF4	*	*
=93	=93	=93
!	!	!LO:DY:rj
8BL 8G 8E\	(8gg\L	p
8B 8G 8E\	8.ee\)	.
8cJ 8A 8E\	.	.
.	(16ff#\Jk|	.
=94	=94	=94
8B 8A 8E\	16.b\LL)	.
.	32dd#X\JJk|	.
(8d#XL 8A 8E\	(8ff#\L	.
8eJ 8G 8E\)	8ee\J)	.
=95	=95	=95
8BL 8G 8E\	16.gg\LL|	.
.	32gg\JK|	.
8B 8G 8E\	8.ee\|	.
8cJ 8A 8E\	.	.
.	(16ff#\Jk	.
=96	=96	=96
8B 8A 8E\	16.b\LL)	.
.	32dd#X\JJk|	.
4B 4G 4E\	(8ee\L	.
.	8eee\J)	.
!!LO:LB:g=original
=97	=97	=97
8BL 8G 8E\	(8gg\L	.
8B 8G 8E\	8.ee\)	.
8cJ 8A 8E\	.	.
.	(16ff#\Jk|	.
=98	=98	=98
8B 8A 8E\	16.b\LL)	.
.	32dd#X\JJk|	.
(8d#XL 8A 8E\	(8ff#^<\L	.
8eJ 8G 8E\)	8ee\J)	.
=99	=99	=99
8BL 8G 8E\	16.gg\LL|	.
.	(32gg\JJk|	.
8B 8G 8E\	8.ee\L)	.
8cJ 8A 8E\	.	.
.	(16ff#\Jk	.
=100	=100	=100
8B 8A 8E\	16.b\LL)	.
.	32dd#X\JJk|	.
8BL 8A 8E\	(8dd#^<\L	.
8BJ 8G 8E\	8ee\J)	.
=101:|!	=101:|!	=101:|!
*>C	*>C	*>C
8D 8DD/	16.eeLL 16.cc\	.
.	32eeJJk 32cc\	.
8r	8ddL 8b\	.
8c 8F# 8D\	8ccJ 8a\	.
=102	=102	=102
8B 8G\	16.bLL 16.g/	.
.	32f#/K	.
8r	16g/	.
.	16e/J	.
8B 8G\	8d/J	.
!!LO:LB:g=original
=103	=103	=103
8A\	16.f#LL 16.d/	.
.	32aJJk 32f#/	.
8r	8gL 8e/	.
8G 8AA\	8eJ 8c#X/	.
=104	=104	=104
8F# 8D\	16.d/LL	.
.	32f#/K	.
8r	16.a/	.
.	32cc#X/JK	.
8d 8A 8F# 8D\	8dd/J	sf
=105	=105	=105
8D 8DD/	16.eeLL 16.ccn\	.
.	32eeJJk 32cc\	.
8r	8ddL 8b\	.
8c 8F# 8D\	8ccJ 8a\	.
=106	=106	=106
8B 8G\	16.bLL 16.g/	.
.	32f#/K	.
8r	16g/	.
.	16e/J	.
8B 8G\	8d/J	.
=107	=107	=107
*	*^	*
8A\	16.f#LL 16.d/	8ryy	.
.	32aJJk 32f#/	.	.
8r	8gL 8e/	8ryy	.
8G 8AA\	16.e/L	8c#X\	.
.	32f#/JJk	.	.
*	*v	*v	*
=108	=108	=108
8F# 8D\	8d/	.
4D 4DD/	4dd 4f# 4d/	.
!!LO:LB:g=original
=109||	=109||	=109||
!	!	!LO:DY:rj
8D\	(24dd\LL	p
.	24ff#\	.
.	24aa\JJ	.
*clefG2	*	*
8ccL 8a 8f# 8d/	8ccc\L)	.
8ccJ 8a 8f# 8d/	8eeeJ 8ccc'\	.
=110	=110	=110
*clefF4	*	*
8D\	16.eeeLL 16.ccc\	.
.	32dddJJk 32bb\	.
*clefG2	*	*
8bL 8g 8d/	8gggL 8bb\	.
8bJ 8g 8d/	8bbJ 8gg\	.
=111	=111	=111
*clefF4	*	*
8D\	(16bb\LL	.
.	16aa\	.
*clefG2	*	*
8ccL 8a 8d/	16ccc\)	.
.	16ee'\	.
8ccJ 8a 8d/	16ff#'\	.
.	16dd'\JJ	.
=112	=112	=112
*clefF4	*	*
8D\	16.gg\LL	.
.	32bb\K	.
*clefG2	*	*
8bL 8g 8d/	16ddd\	.
.	16eee\J	.
8bJ 8g 8d/	8ddd\J	.
*clefF4	*	*
=113	=113	=113
!	!	!LO:DY:rj
8D 8DD/	24d/LL	f
.	24f#/	.
.	24a/JJ	.
8cL 8A 8F# 8D\	8cc\L	.
8cJ 8A 8F# 8D\	8eeJ 8cc\	.
=114	=114	=114
8G 8GG/	16.eeLL 16.cc\	.
.	32ddJJk 32b\	.
8BL 8G\	8ggL 8b\	.
8A#XJ 8G 8E\	8cc#X^\J	.
=115	=115	=115
8BL 8G 8D\	(24dd\LL	.
.	24cc#X\	.
.	24dd\JJ	.
8c#X 8A 8D\	24ee\LL	.
.	24dd#X\	.
.	24ee\JJ	.
8cnJ 8A 8D\	24ff#\LL	.
.	24ee\	.
.	24ff#\JJ	.
!!LO:LB:g=original
=116	=116	=116
8B 8G\	8gg\)	.
4B 4G\	4g/	.
=117||	=117||	=117||
!	!LO:TX:a:t=Coda	!
8B 8G 8E\	8gg 8g\	.
4B 4G 4E\	4b 4g/	.
=118	=118	=118
8A 8E 8C\	16.a\LL	.
.	32b\K	.
4A 4E 4C\	16cc\	.
.	16dd\J	.
.	8ee\J	.
=119	=119	=119
*tremolo	*	*
8cL 8A 8D\	16ee\LL	.
.	16dd\	.
8c 8A 8D\	16cc#X\	.
.	16dd\	.
8cJ 8A 8D\	16ee\	.
.	16ff#\JJ	.
*Xtremolo	*	*
=120	=120	=120
8B 8G\	8gg\	.
4B 4G\	4b 4g/	.
=121	=121	=121
8B 8G 8E\	8gg 8b\	.
4B 4G 4E\	4bb 4gg\	.
=122	=122	=122
*tremolo	*	*
8AL 8E 8C\	16.aa\LL	.
.	32bb\K	.
8A 8E 8C\	16ccc\	.
.	16ddd\J	.
8AJ 8E 8C\	8eee\J	.
=123	=123	=123
8cL 8A 8F# 8D\	(16eee\LL	.
.	16ddd\JJ)	.
8c 8A 8F# 8D\	(16ccc#X\LL	.
.	16ddd\JJ)	.
8cJ 8A 8F# 8D\	(16cccn\LL	.
.	16aa\JJ)	.
*Xtremolo	*	*
=124	=124	=124
8B 8G\	8gg\	.
4A 4F# 4D\	4aa 4ff# 4dd^<\	.
!!LO:LB:g=original
=125	=125	=125
8B 8G\	8bb 8gg 8dd\	.
4A 4F# 4D\	4aa 4ff# 4dd^<\	.
=126	=126	=126
*rep	*rep	*
8B 8G\	8bb 8gg 8dd\	.
4A 4F# 4D\	4aa 4ff# 4dd^<\	.
*Xrep	*Xrep	*
=127	=127	=127
8BL 8G\	8bbL 8gg 8dd\	.
8AJ 8F# 8D\	8aa 8ff# 8dd\	.
8D 8DD/	8fff#J 8ccc 8aa\	.
=128	=128	=128
*	*tremolo	*
8GL 8GG/	16gggLL 16bb\	.
.	16gg\	.
8G 8GG/	16ggg 16bb\	.
.	16gg\	.
8DJ 8DD/	16ggg 16bb\	.
.	16gg\JJ	.
=129	=129	=129
*	*rep	*
8BBL 8BBB/	16gggLL 16bb\	.
.	16gg\	.
8D 8DD/	16ggg 16bb\	.
.	16gg\	.
8BBJ 8BBB/	16ggg 16bb\	.
.	16gg\JJ	.
*	*Xrep	*
=130	=130	=130
*	*rep	*
8GGL 8GGG/	16gggLL 16bb\	.
.	16gg\	.
8G 8GG/	16ggg 16bb\	.
.	16gg\	.
8DJ 8DD/	16ggg 16bb\	.
.	16gg\JJ	.
*	*Xrep	*
=131	=131	=131
*	*rep	*
8BBL 8BBB/	16gggLL 16bb\	.
.	16gg\	.
8D 8DD/	16ggg 16bb\	.
.	16gg\	.
8BBJ 8BBB/	16ggg 16bb\	.
.	16gg\JJ	.
*	*Xrep	*
*	*Xtremolo	*
=132	=132	=132
8GG 8GGG/	8ggg 8bb 8gg\	.
8r	8r	.
8r	8r	.
==	==	==
*-	*-	*-
!!!system-decoration: {(s1,s2)}
!!!RDF**kern: > = above
!!!RDF**kern: < = below
!!!RDF**kern: | = vertical stroke
!!!ENC: Marta Lawrence
!!!END: 2021-06-12
!!!ENC: Marcin Jachim
!!!END: 2021-06-10
